; generated by SuperSlicer 2.4 on 2023-08-31 at 02:29:30 UTC

; 

; external perimeters extrusion width = 0.65mm
; perimeters extrusion width = 0.65mm
; infill extrusion width = 0.65mm
; solid infill extrusion width = 0.65mm
; top infill extrusion width = 0.60mm
; first layer extrusion width = 0.65mm

; object:{"name":"cha","id":"cha.stl id:0 copy 0","object_center":[125.000000,105.000000,0.000000],"boundingbox_center":[125.000000,105.000000,32.500000],"boundingbox_size":[100.000000,40.000000,65.000000]}
; Total objects to print: 1
M486 T1
; plater:{"center":[125.000000,105.000000,0.000000],"boundingbox_center":[125.000000,105.000000,32.500000],"boundingbox_size":[100.000000,40.000000,65.000000]}

M73 P0 R169
M73 Q0 S172
M201 X1000 Y1000 Z200 E5000 ; sets maximum accelerations, mm/sec^2
M203 X200 Y200 Z12 E120 ; sets maximum feedrates, mm / sec
M204 P1250 R1250 T1250 ; sets acceleration (P, T) and retract acceleration (R), mm/sec^2
M205 X8.00 Y8.00 Z0.40 E4.50 ; sets the jerk limits, mm/sec
M205 S0 T0 ; sets the minimum extruding and travel feed rate, mm/sec
;TYPE:Custom
M862.3 P "MK3S" ; printer model check
M862.1 P0.6 ; nozzle diameter check
M115 U3.10.1 ; tell printer latest fw version
G90 ; use absolute coordinates
M83 ; extruder relative mode
M104 S230 ; set extruder temp
M140 S85 ; set bed temp
M190 S85 ; wait for bed temp
M109 S230 ; wait for extruder temp
G28 W ; home all without mesh bed level
G80 ; mesh bed leveling
G1 Z0.2 F720
G1 Y-3 F1000 ; go outside print area
G92 E0
G1 X60 E9 F1000 ; intro line
G1 X100 E12.5 F1000 ; intro line
G92 E0
M221 S95
M107
G21 ; set units to millimeters
G90 ; use absolute coordinates
M83 ; use relative distances for extrusion
M900 K0.04 ; Filament gcode LA 1.5
M900 K24 ; Filament gcode LA 1.0
;_TOOLCHANGE 0
M107
;LAYER_CHANGE
;Z:0.2
;HEIGHT:0.2
;BEFORE_LAYER_CHANGE
G92 E0.0
;0.2


G1 E-1 F2100
G1 Z0.2 F720
G1 Z0.2
;AFTER_LAYER_CHANGE
;0.2
G1 Z0.4
M204 S800
G1 X80.325 Y83.325 F10800
G1 Z0.2 F720
G1 E1 F2100
;TYPE:Skirt
;WIDTH:0.78
G1 F1200
M73 P0 R168
G1 X73.325 Y90.325 E0.60672
G1 X72.631 Y92 E0.1111
G1 X72.631 Y118 E1.5935
G1 X73.325 Y119.675 E0.1111
G1 X80.325 Y126.675 E0.60672
G1 X82 Y127.369 E0.1111
G1 X168 Y127.369 E5.2708
G1 X169.675 Y126.675 E0.1111
G1 X176.675 Y119.675 E0.60672
G1 X177.369 Y118 E0.1111
G1 X177.369 Y92 E1.5935
G1 X176.675 Y90.325 E0.1111
G1 X169.675 Y83.325 E0.60672
G1 X168 Y82.631 E0.1111
G1 X82 Y82.631 E5.2708
G1 X80.408 Y83.291 E0.10559
;WIPE_START
G1 F8640
M204 S1000
G1 X77.489 Y86.19 E-0.95
;WIPE_END
G1 E-0.05 F2100
G1 Z0.4 F720
; printing object cha.stl id:0 copy 0
M486 S0
; acceleration to travel
M204 S1500
G1 X81.658 Y86.141 F10800
; decel to extrusion
M204 S800
G1 X82.469 Y86.132
; end travel
G1 Z0.2 F720
G1 E1 F2100
;TYPE:Internal perimeter
;WIDTH:0.65
G1 F1200
G1 X167.531 Y86.132 E4.29384
G1 X173.868 Y92.469 E0.45237
G1 X173.868 Y117.531 E1.26511
G1 X167.531 Y123.868 E0.45237
G1 X82.469 Y123.868 E4.29384
G1 X76.132 Y117.531 E0.45237
G1 X76.132 Y92.469 E1.26511
G1 X82.405 Y86.196 E0.44783
G1 X82.217 Y85.525 F10800
;TYPE:External perimeter
G1 F1200
G1 X167.783 Y85.525 E4.31923
G1 X167.979 Y85.721 E0.01401
M73 Q0 S171
G1 X174.475 Y92.217 E0.46375
G1 X174.475 Y117.783 E1.2905
G1 X167.783 Y124.475 E0.47776
G1 X82.217 Y124.475 E4.31923
G1 X75.525 Y117.783 E0.47776
G1 X75.525 Y92.217 E1.2905
G1 X82.154 Y85.589 E0.47322
;WIPE_START
M204 S1000
G1 X82.642 Y85.949 F10800
;WIPE_END
;WIPE_START
G1 F8640
G1 X86.756 Y85.943 E-0.95
;WIPE_END
G1 E-0.05 F2100
G1 Z0.4 F720
; acceleration to travel
M204 S1500
G1 X153.997 Y86.254 F10800
; decel to extrusion
M204 S800
G1 X167.069 Y86.314
; end travel
G1 Z0.2 F720
G1 E1 F2100
;TYPE:Solid infill
;WIDTH:0.647939
G1 F1200
G1 X173.425 Y92.67 E0.45227
G1 X173.425 Y93.528 E0.0432
G1 X166.472 Y86.575 E0.49479
G1 X165.613 Y86.575 E0.0432
G1 X173.425 Y94.387 E0.55588
G1 X173.425 Y95.245 E0.0432
G1 X164.755 Y86.575 E0.61698
G1 X163.896 Y86.575 E0.0432
G1 X173.425 Y96.104 E0.67807
G1 X173.425 Y96.962 E0.0432
G1 X163.038 Y86.575 E0.73917
G1 X162.179 Y86.575 E0.0432
G1 X173.425 Y97.821 E0.80026
G1 X173.425 Y98.679 E0.0432
G1 X161.321 Y86.575 E0.86136
G1 X160.462 Y86.575 E0.0432
G1 X173.425 Y99.538 E0.92245
G1 X173.425 Y100.397 E0.0432
G1 X159.603 Y86.575 E0.98355
G1 X158.745 Y86.575 E0.0432
G1 X173.425 Y101.255 E1.04464
G1 X173.425 Y102.114 E0.0432
G1 X157.886 Y86.575 E1.10574
G1 X157.028 Y86.575 E0.0432
G1 X173.425 Y102.972 E1.16683
G1 X173.425 Y103.831 E0.0432
G1 X156.169 Y86.575 E1.22793
G1 X155.311 Y86.575 E0.0432
G1 X173.425 Y104.689 E1.28902
G1 X173.425 Y105.548 E0.0432
G1 X154.452 Y86.575 E1.35012
G1 X153.594 Y86.575 E0.0432
G1 X173.425 Y106.406 E1.41121
G1 X173.425 Y107.265 E0.0432
G1 X152.735 Y86.575 E1.47231
G1 X151.877 Y86.575 E0.0432
G1 X173.425 Y108.123 E1.5334
G1 X173.425 Y108.982 E0.0432
M73 P0 R167
G1 X151.018 Y86.575 E1.5945
G1 X150.159 Y86.575 E0.0432
G1 X173.425 Y109.841 E1.65559
G1 X173.425 Y110.699 E0.0432
G1 X149.301 Y86.575 E1.71669
G1 X148.442 Y86.575 E0.0432
G1 X173.425 Y111.558 E1.77778
G1 X173.425 Y112.416 E0.0432
G1 X147.584 Y86.575 E1.83888
G1 X146.725 Y86.575 E0.0432
G1 X173.425 Y113.275 E1.89997
G1 X173.425 Y114.133 E0.0432
G1 X145.867 Y86.575 E1.96107
G1 X145.008 Y86.575 E0.0432
G1 X173.425 Y114.992 E2.02216
G1 X173.425 Y115.85 E0.0432
M73 P1 R167
G1 X144.15 Y86.575 E2.08326
G1 X143.291 Y86.575 E0.0432
M73 Q1 S171
G1 X173.425 Y116.709 E2.14435
G1 X173.425 Y117.348 E0.03214
G1 X173.315 Y117.457 E0.00782
G1 X142.433 Y86.575 E2.19763
G1 X141.574 Y86.575 E0.0432
G1 X172.886 Y117.887 E2.22817
G1 X172.456 Y118.316 E0.03055
G1 X140.716 Y86.575 E2.25872
G1 X139.857 Y86.575 E0.0432
G1 X172.027 Y118.745 E2.28927
G1 X171.598 Y119.175 E0.03055
G1 X138.998 Y86.575 E2.31982
G1 X138.14 Y86.575 E0.0432
M73 Q1 S170
G1 X171.169 Y119.604 E2.35036
G1 X170.739 Y120.033 E0.03055
G1 X137.281 Y86.575 E2.38091
G1 X136.423 Y86.575 E0.0432
G1 X170.31 Y120.462 E2.41146
G1 X169.881 Y120.892 E0.03055
G1 X135.564 Y86.575 E2.44201
G1 X134.706 Y86.575 E0.0432
G1 X169.451 Y121.321 E2.47255
G1 X169.022 Y121.75 E0.03055
G1 X133.847 Y86.575 E2.5031
G1 X132.989 Y86.575 E0.0432
G1 X168.593 Y122.179 E2.53365
G1 X168.164 Y122.609 E0.03055
G1 X132.13 Y86.575 E2.5642
G1 X131.272 Y86.575 E0.0432
G1 X167.734 Y123.038 E2.59474
G1 X167.348 Y123.425 E0.02753
G1 X167.263 Y123.425 E0.00427
G1 X130.413 Y86.575 E2.62227
G1 X129.555 Y86.575 E0.0432
G1 X166.404 Y123.425 E2.62227
G1 X165.546 Y123.425 E0.0432
G1 X128.696 Y86.575 E2.62227
G1 X127.837 Y86.575 E0.0432
M73 P1 R166
G1 X164.687 Y123.425 E2.62227
G1 X163.828 Y123.425 E0.0432
G1 X126.979 Y86.575 E2.62227
G1 X126.12 Y86.575 E0.0432
G1 X162.97 Y123.425 E2.62227
G1 X162.111 Y123.425 E0.0432
G1 X125.262 Y86.575 E2.62227
G1 X124.403 Y86.575 E0.0432
G1 X161.253 Y123.425 E2.62227
G1 X160.394 Y123.425 E0.0432
G1 X123.545 Y86.575 E2.62227
G1 X122.686 Y86.575 E0.0432
G1 X159.536 Y123.425 E2.62227
G1 X158.677 Y123.425 E0.0432
G1 X121.828 Y86.575 E2.62227
G1 X120.969 Y86.575 E0.0432
G1 X157.819 Y123.425 E2.62227
G1 X156.96 Y123.425 E0.0432
G1 X120.111 Y86.575 E2.62227
G1 X119.252 Y86.575 E0.0432
G1 X156.102 Y123.425 E2.62227
G1 X155.243 Y123.425 E0.0432
M73 Q1 S169
G1 X118.394 Y86.575 E2.62227
G1 X117.535 Y86.575 E0.0432
G1 X154.385 Y123.425 E2.62227
G1 X153.526 Y123.425 E0.0432
G1 X116.676 Y86.575 E2.62227
G1 X115.818 Y86.575 E0.0432
G1 X152.667 Y123.425 E2.62227
G1 X151.809 Y123.425 E0.0432
G1 X114.959 Y86.575 E2.62227
G1 X114.101 Y86.575 E0.0432
G1 X150.95 Y123.425 E2.62227
G1 X150.092 Y123.425 E0.0432
G1 X113.242 Y86.575 E2.62227
G1 X112.384 Y86.575 E0.0432
G1 X149.233 Y123.425 E2.62227
G1 X148.375 Y123.425 E0.0432
G1 X111.525 Y86.575 E2.62227
G1 X110.667 Y86.575 E0.0432
G1 X147.516 Y123.425 E2.62227
G1 X146.658 Y123.425 E0.0432
M73 P2 R166
G1 X109.808 Y86.575 E2.62227
G1 X108.95 Y86.575 E0.0432
M73 P2 R165
M73 Q2 S169
G1 X145.799 Y123.425 E2.62227
G1 X144.941 Y123.425 E0.0432
G1 X108.091 Y86.575 E2.62227
G1 X107.233 Y86.575 E0.0432
G1 X144.082 Y123.425 E2.62227
G1 X143.224 Y123.425 E0.0432
G1 X106.374 Y86.575 E2.62227
G1 X105.515 Y86.575 E0.0432
G1 X142.365 Y123.425 E2.62227
G1 X141.506 Y123.425 E0.0432
G1 X104.657 Y86.575 E2.62227
G1 X103.798 Y86.575 E0.0432
G1 X140.648 Y123.425 E2.62227
G1 X139.789 Y123.425 E0.0432
G1 X102.94 Y86.575 E2.62227
G1 X102.081 Y86.575 E0.0432
G1 X138.931 Y123.425 E2.62227
G1 X138.072 Y123.425 E0.0432
G1 X101.223 Y86.575 E2.62227
G1 X100.364 Y86.575 E0.0432
G1 X137.214 Y123.425 E2.62227
G1 X136.355 Y123.425 E0.0432
M73 Q2 S168
G1 X99.506 Y86.575 E2.62227
G1 X98.647 Y86.575 E0.0432
G1 X135.497 Y123.425 E2.62227
G1 X134.638 Y123.425 E0.0432
G1 X97.789 Y86.575 E2.62227
G1 X96.93 Y86.575 E0.0432
G1 X133.78 Y123.425 E2.62227
G1 X132.921 Y123.425 E0.0432
G1 X96.072 Y86.575 E2.62227
G1 X95.213 Y86.575 E0.0432
G1 X132.063 Y123.425 E2.62227
G1 X131.204 Y123.425 E0.0432
G1 X94.354 Y86.575 E2.62227
G1 X93.496 Y86.575 E0.0432
G1 X130.345 Y123.425 E2.62227
G1 X129.487 Y123.425 E0.0432
G1 X92.637 Y86.575 E2.62227
G1 X91.779 Y86.575 E0.0432
G1 X128.628 Y123.425 E2.62227
G1 X127.77 Y123.425 E0.0432
G1 X90.92 Y86.575 E2.62227
G1 X90.062 Y86.575 E0.0432
G1 X126.911 Y123.425 E2.62227
G1 X126.053 Y123.425 E0.0432
M73 P2 R164
G1 X89.203 Y86.575 E2.62227
G1 X88.345 Y86.575 E0.0432
G1 X125.194 Y123.425 E2.62227
G1 X124.336 Y123.425 E0.0432
G1 X87.486 Y86.575 E2.62227
G1 X86.628 Y86.575 E0.0432
G1 X123.477 Y123.425 E2.62227
G1 X122.619 Y123.425 E0.0432
G1 X85.769 Y86.575 E2.62227
G1 X84.911 Y86.575 E0.0432
G1 X121.76 Y123.425 E2.62227
G1 X120.902 Y123.425 E0.0432
G1 X84.052 Y86.575 E2.62227
G1 X83.193 Y86.575 E0.0432
G1 X120.043 Y123.425 E2.62227
G1 X119.184 Y123.425 E0.0432
G1 X82.494 Y86.734 E2.61097
G1 X82.064 Y87.163 E0.03055
G1 X118.326 Y123.425 E2.58042
G1 X117.467 Y123.425 E0.0432
G1 X81.635 Y87.593 E2.54987
G1 X81.206 Y88.022 E0.03055
M73 Q2 S167
G1 X116.609 Y123.425 E2.51933
G1 X115.75 Y123.425 E0.0432
G1 X80.777 Y88.451 E2.48878
G1 X80.347 Y88.88 E0.03055
G1 X114.892 Y123.425 E2.45823
G1 X114.033 Y123.425 E0.0432
M73 P3 R164
G1 X79.918 Y89.31 E2.42768
G1 X79.489 Y89.739 E0.03055
G1 X113.175 Y123.425 E2.39714
G1 X112.316 Y123.425 E0.0432
G1 X79.06 Y90.168 E2.36659
G1 X78.63 Y90.597 E0.03055
M73 Q3 S167
G1 X111.458 Y123.425 E2.33604
G1 X110.599 Y123.425 E0.0432
G1 X78.201 Y91.027 E2.30549
G1 X77.772 Y91.456 E0.03055
G1 X109.74 Y123.425 E2.27495
G1 X108.882 Y123.425 E0.0432
G1 X77.342 Y91.885 E2.2444
G1 X76.913 Y92.315 E0.03055
G1 X108.023 Y123.425 E2.21385
G1 X107.165 Y123.425 E0.0432
G1 X76.575 Y92.835 E2.17681
G1 X76.575 Y93.694 E0.0432
G1 X106.306 Y123.425 E2.11571
G1 X105.448 Y123.425 E0.0432
M73 P3 R163
G1 X76.575 Y94.552 E2.05462
G1 X76.575 Y95.411 E0.0432
G1 X104.589 Y123.425 E1.99352
G1 X103.731 Y123.425 E0.0432
G1 X76.575 Y96.269 E1.93243
G1 X76.575 Y97.128 E0.0432
G1 X102.872 Y123.425 E1.87133
G1 X102.014 Y123.425 E0.0432
G1 X76.575 Y97.986 E1.81024
G1 X76.575 Y98.845 E0.0432
G1 X101.155 Y123.425 E1.74914
G1 X100.297 Y123.425 E0.0432
G1 X76.575 Y99.703 E1.68805
G1 X76.575 Y100.562 E0.0432
G1 X99.438 Y123.425 E1.62695
G1 X98.579 Y123.425 E0.0432
G1 X76.575 Y101.421 E1.56586
G1 X76.575 Y102.279 E0.0432
G1 X97.721 Y123.425 E1.50476
G1 X96.862 Y123.425 E0.0432
G1 X76.575 Y103.138 E1.44367
G1 X76.575 Y103.996 E0.0432
G1 X96.004 Y123.425 E1.38257
G1 X95.145 Y123.425 E0.0432
G1 X76.575 Y104.855 E1.32148
G1 X76.575 Y105.713 E0.0432
G1 X94.287 Y123.425 E1.26038
G1 X93.428 Y123.425 E0.0432
G1 X76.575 Y106.572 E1.19929
G1 X76.575 Y107.43 E0.0432
G1 X92.57 Y123.425 E1.13819
G1 X91.711 Y123.425 E0.0432
G1 X76.575 Y108.289 E1.0771
G1 X76.575 Y109.147 E0.0432
G1 X90.853 Y123.425 E1.016
G1 X89.994 Y123.425 E0.0432
M73 Q3 S166
G1 X76.575 Y110.006 E0.95491
G1 X76.575 Y110.864 E0.0432
G1 X89.136 Y123.425 E0.89381
G1 X88.277 Y123.425 E0.0432
G1 X76.575 Y111.723 E0.83272
G1 X76.575 Y112.582 E0.0432
G1 X87.418 Y123.425 E0.77162
G1 X86.56 Y123.425 E0.0432
G1 X76.575 Y113.44 E0.71053
G1 X76.575 Y114.299 E0.0432
G1 X85.701 Y123.425 E0.64943
G1 X84.843 Y123.425 E0.0432
G1 X76.575 Y115.157 E0.58834
G1 X76.575 Y116.016 E0.0432
G1 X83.984 Y123.425 E0.52724
G1 X83.126 Y123.425 E0.0432
G1 X76.314 Y116.613 E0.48472
;LAYER_CHANGE
;Z:0.5
;HEIGHT:0.3
;BEFORE_LAYER_CHANGE
G92 E0.0
;0.5


;WIPE_START
G1 F8640
M204 S1000
G1 X79.223 Y119.522 E-0.95
;WIPE_END
G1 E-0.05 F2100
G1 Z0.4 F720
; stop printing object cha.stl id:0 copy 0
M486 S-1
G1 Z0.5
;AFTER_LAYER_CHANGE
;0.5
M104 S240 ; set temperature
M140 S90 ; set bed temperature
G1 Z0.7
; acceleration to travel
M204 S1500
G1 X76.793 Y121.953 F10800
; decel to extrusion
M204 S1000
G1 X76.198 Y122.548
; end travel
G1 Z0.5 F720
G1 E1 F2100
;TYPE:Skirt
;WIDTH:0.78
G1 F1500
G1 X80.325 Y126.675 E0.52095
G1 X82 Y127.369 E0.1618
G1 X168 Y127.369 E7.67602
G1 X169.675 Y126.675 E0.1618
G1 X176.675 Y119.675 E0.88359
G1 X177.369 Y118 E0.1618
G1 X177.369 Y92 E2.32066
G1 X176.675 Y90.325 E0.1618
G1 X169.675 Y83.325 E0.88359
G1 X168 Y82.631 E0.1618
G1 X82 Y82.631 E7.67602
G1 X80.325 Y83.325 E0.1618
G1 X73.325 Y90.325 E0.88359
G1 X72.631 Y92 E0.1618
G1 X72.631 Y118 E2.32066
G1 X73.325 Y119.675 E0.1618
G1 X76.134 Y122.484 E0.35461
;WIPE_START
G1 F8640
G1 X79.044 Y125.393 E-0.95
;WIPE_END
G1 E-0.05 F2100
G1 Z0.7 F720
; printing object cha.stl id:0 copy 0
M486 S0
; acceleration to travel
M204 S1500
G1 X78.554 Y121.054 F10800
; decel to extrusion
M204 S800
G1 X78.453 Y120.165
; end travel
G1 Z0.5 F720
G1 E1 F2100
;TYPE:Internal perimeter
;WIDTH:0.65
G1 F2700
G1 X75.911 Y117.623 E0.26264
G1 X75.911 Y92.377 E1.84398
G1 X82.377 Y85.911 E0.66797
G1 X167.623 Y85.911 E6.22648
G1 X174.089 Y92.377 E0.66797
G1 X174.089 Y117.623 E1.84398
G1 X167.623 Y124.089 E0.66797
G1 X82.377 Y124.089 E6.22648
G1 X78.517 Y120.229 E0.39876
G1 X78.039 Y120.579 F10800
;TYPE:External perimeter
G1 F2100
G1 X75.325 Y117.865 E0.28036
G1 X75.325 Y92.135 E1.87942
G1 X82.135 Y85.325 E0.70341
G1 X167.865 Y85.325 E6.26192
G1 X174.675 Y92.135 E0.70341
G1 X174.675 Y117.865 E1.87942
G1 X167.865 Y124.675 E0.70341
G1 X82.135 Y124.675 E6.26192
M73 P3 R162
G1 X78.103 Y120.643 E0.41648
;WIPE_START
M204 S1000
G1 X78.194 Y120 F10800
;WIPE_END
;WIPE_START
G1 F8640
G1 X75.625 Y117.741 E-0.78994
G1 X75.625 Y117.048 E-0.16006
;WIPE_END
G1 E-0.05 F2100
G1 Z0.7 F720
; acceleration to travel
M204 S1500
G1 X75.992 Y98.117 F10800
; decel to extrusion
M204 S1000
G1 X76.086 Y93.261
; end travel
G1 Z0.5 F720
G1 E1 F2100
;TYPE:Solid infill
;WIDTH:0.64822
G1 F2739.6537
G1 X83.009 Y86.338 E0.71312
G1 X83.837 Y86.338 E0.06033
G1 X76.338 Y93.837 E0.7725
G1 X76.338 Y94.665 E0.06033
G1 X84.665 Y86.338 E0.85781
G1 X85.493 Y86.338 E0.06033
G1 X76.338 Y95.493 E0.94313
G1 X76.338 Y96.322 E0.06033
G1 X86.322 Y86.338 E1.02844
G1 X87.15 Y86.338 E0.06033
G1 X76.338 Y97.15 E1.11376
G1 X76.338 Y97.978 E0.06033
G1 X87.978 Y86.338 E1.19907
G1 X88.806 Y86.338 E0.06033
G1 X76.338 Y98.806 E1.28439
G1 X76.338 Y99.634 E0.06033
G1 X89.634 Y86.338 E1.3697
G1 X90.463 Y86.338 E0.06033
G1 X76.338 Y100.463 E1.45502
G1 X76.338 Y101.291 E0.06033
G1 X91.291 Y86.338 E1.54033
G1 X92.119 Y86.338 E0.06033
G1 X76.338 Y102.119 E1.62565
G1 X76.338 Y102.947 E0.06033
G1 X92.947 Y86.338 E1.71096
G1 X93.775 Y86.338 E0.06033
G1 X76.338 Y103.775 E1.79628
G1 X76.338 Y104.604 E0.06033
G1 X94.604 Y86.338 E1.88159
G1 X95.432 Y86.338 E0.06033
G1 X76.338 Y105.432 E1.9669
G1 X76.338 Y106.26 E0.06033
G1 X96.26 Y86.338 E2.05222
G1 X97.088 Y86.338 E0.06033
G1 X76.338 Y107.088 E2.13753
G1 X76.338 Y107.916 E0.06033
G1 X97.916 Y86.338 E2.22285
G1 X98.745 Y86.338 E0.06033
G1 X76.338 Y108.745 E2.30816
G1 X76.338 Y109.573 E0.06033
G1 X99.573 Y86.338 E2.39348
G1 X100.401 Y86.338 E0.06033
G1 X76.338 Y110.401 E2.47879
G1 X76.338 Y111.229 E0.06033
G1 X101.229 Y86.338 E2.56411
G1 X102.057 Y86.338 E0.06033
G1 X76.338 Y112.057 E2.64942
G1 X76.338 Y112.885 E0.06033
G1 X102.885 Y86.338 E2.73474
G1 X103.714 Y86.338 E0.06033
G1 X76.338 Y113.714 E2.82005
G1 X76.338 Y114.542 E0.06033
G1 X104.542 Y86.338 E2.90537
G1 X105.37 Y86.338 E0.06033
M73 P4 R162
G1 X76.338 Y115.37 E2.99068
G1 X76.338 Y116.198 E0.06033
G1 X106.198 Y86.338 E3.076
G1 X107.026 Y86.338 E0.06033
G1 X76.338 Y117.026 E3.16131
